X:1
T:J. S. Bach
T:Goldberg Variations: Variation XIV
T:BWV 988
%%score { 1 | 2 }
L:1/8
Q:1/4=96
M:3/4
K:G
V:1 bass nm="Harp"
V:2 bass 
V:1
"^Andante" G,,/4F,,/4G,,3/2[K:treble] a/4g/4a/4g/4a/4g/4a/4g/4 a/4g/4a/4g/4a/4g/4f/4g/4 | %1
 a z[K:bass] F,/4E,/4F,3/2- F,/A,/G,/F,/ | E, z[K:treble] ed ^cd/e/ | %3
 F z[K:bass] D,/4C,/4D,/4C,/4D,/4C,/4D,/4C,/4 D,/4C,/4D,/4C,/4D,/4C,/4B,,/4C,/4 | %4
 B,,G,, B,,D, G,B,, | C,E, G,C E,G, | F,A, D,F, A,C | B,G, B,D G z | %8
[K:treble] z/ b/4a/4b/ z e/4d/4e/ z A/4G/4A/ z/ | z/ a/4g/4a/ z d/4^c/4d/ z G/4F/4G/ z/ | %10
 z/ g/4f/4g/ z B/4A/4B/ z E/4D/4E/ z/ | %11
[K:bass] z/ G,/4F,/4G,/ z ^C,/4B,,/4C,/ z G,,/4F,,/4G,,/ z/ | %12
[K:treble] z/4 D/4E/4F/4A/4F/4E/4D/4 z/4 D/4E/4F/4A/4F/4E/4D/4 z/4 D/4E/4F/4A/4F/4E/4D/4 | %13
 B z[K:bass] =F, z E, z |[K:treble] z/ E/4D/4E/A/4G/4 A/D/4^C/4D/G/4F/4 G/C/4B,/4C/F/4E/4 | %15
 F/D/^C/D/ F/4E/4D/A/4G/4F/ d z | %16
 G,,/4F,,/4G,,3/2 a/4g/4a/4g/4a/4g/4a/4g/4 a/4g/4a/4g/4a/4g/4f/4g/4 | %17
 a z[K:bass] F,/4E,/4F,3/2- F,/A,/G,/F,/ | E, z[K:treble] ed ^cd/e/ | %19
 F z[K:bass] D,/4C,/4D,/4C,/4D,/4C,/4D,/4C,/4 D,/4C,/4D,/4C,/4D,/4C,/4B,,/4C,/4 | %20
 B,,G,, B,,D, G,B,, | C,E, G,C E,G, | F,A, D,F, A,C | B,G, B,D G z | %24
[K:treble] z/ b/4a/4b/ z e/4d/4e/ z A/4G/4A/ z/ | z/ a/4g/4a/ z d/4^c/4d/ z G/4F/4G/ z/ | %26
 z/ g/4f/4g/ z B/4A/4B/ z E/4D/4E/ z/ | %27
[K:bass] z/ G,/4F,/4G,/ z ^C,/4B,,/4C,/ z G,,/4F,,/4G,,/ z/ | %28
[K:treble] z/4 D/4E/4F/4A/4F/4E/4D/4 z/4 D/4E/4F/4A/4F/4E/4D/4 z/4 D/4E/4F/4A/4F/4E/4D/4 | %29
 B z[K:bass] =F, z E, z |[K:treble] z/ E/4D/4E/A/4G/4 A/D/4^C/4D/G/4F/4 G/C/4B,/4C/F/4E/4 | %31
 F/D/^C/D/ F/4E/4D/A/4G/4F/ d z | f/a/d'/a/ f/a/d/f/ a/f/g/a/ | d/g/b/g/ d/g/B/d/ g/B/c/d/ | %34
 G/c/e/c/ A/c/F/A/ c/F/G/A/ | ^D/F/B/F/ D/F/B,/D/ F/D/E/F/ | B,/E/G/E/ B,/E/G,/B,/ E/^D/E/G/ | %37
 C/=F/A/F/ C/F/A,/C/ F/E/F/A/ | ^D/F/A/F/ D/F/B,/D/[K:bass] F,/A,/G,/F,/ | %39
 G,/B,/E/B,/ G,/B,/E,/F,/ G,/E,/G,/B,/ | E/ z E,/4D,/4 E,/ z C/4B,/4 C/ z[K:treble] A/4^G/4 | %41
 A/ z[K:bass] D,/4C,/4 D,/ z B,/4A,/4 B,/ z[K:treble] G/4F/4 | %42
 G/ z[K:bass] C,/4B,,/4 C,/ z A,/4G,/4 A,/ z[K:treble] F/4E/4 | %43
 F/ z d/4c/4 d/ z g/4f/4 g/ z b/4a/4 | b z D z =F z | %45
 z/4 E/4=F/4G/4c/4G/4F/4E/4 z/4 ^F/4G/4A/4c/4A/4G/4F/4 z/4 G/4A/4_B/4_d/4B/4A/4G/4 | %46
 d/c/4B/4c/B/4A/4 B/^A/4=A/4_B/A/4G/4 A/d/4c/4d/G/4F/4 | G/4A/4B/4c/4d/4c/4B/4A/4 G/B/D/G/ G, z | %48
 f/a/d'/a/ f/a/d/f/ a/f/g/a/ | d/g/b/g/ d/g/B/d/ g/B/c/d/ | G/c/e/c/ A/c/F/A/ c/F/G/A/ | %51
 ^D/F/B/F/ D/F/B,/D/ F/D/E/F/ | B,/E/G/E/ B,/E/G,/B,/ E/^D/E/G/ | C/=F/A/F/ C/F/A,/C/ F/E/F/A/ | %54
 ^D/F/A/F/ D/F/B,/D/ F,/A,/G,/F,/ | G,/B,/E/B,/ G,/B,/E,/F,/ G,/E,/G,/B,/ | %56
 E/ z E,/4D,/4 E,/ z C/4B,/4 C/ z A/4^G/4 | A/ z D,/4C,/4 D,/ z B,/4A,/4 B,/ z G/4F/4 | %58
 G/ z C,/4B,,/4 C,/ z A,/4G,/4 A,/ z F/4E/4 | F/ z d/4c/4 d/ z g/4f/4 g/ z b/4a/4 | b z D z =F z | %61
 z/4 E/4=F/4G/4c/4G/4F/4E/4 z/4 ^F/4G/4A/4c/4A/4G/4F/4 z/4 G/4A/4_B/4_d/4B/4A/4G/4 | %62
 d/c/4B/4c/B/4A/4 B/^A/4=A/4_B/A/4G/4 A/d/4c/4d/G/4F/4 | %63
 G/4A/4B/4c/4d/4c/4B/4A/4 G/B/D/G/ !fermata!G, z |] %64
V:2
 B,/G,/D,/G,/ B,/G,/D/B,/ G,/B,/A,/G,/ | D/A,/F,/A,/ D/A,/[K:treble]A/F/ D/F/E/D/ | %2
 G/E/B,/E/ G/E/B/G/ E/B/A/G/ | d/A/F/A/ d/A/a/f/ d/f/e/d/ | g/d/B/d/ g/d/b/g/ d/=f/e/d/ | %5
 e/c/G/c/ e/c/g/e/ c/d/c/B/ | A/F/D/F/ A/F/d/A/ F/A/G/F/ | G/D/B,/D/ G/D/B/G/ d/c/B/A/ | %8
 G z/ g/4f/4 g/ z ^c/4B/4 c/ z F/4E/4 | F/ z f/4e/4 f/ z B/4A/4 B/ z E/4D/4 | %10
 E/ z e/4d/4 e/ z G/4F/4 G/ z ^C/4B,/4 | %11
 ^C/ z[K:bass] E,/4D,/4 E,/ z A,,/4G,,/4 A,,/ z F,,/4E,,/4 | F,, z[K:treble] d z c z | %13
[K:bass] z/4 G,/4A,/4B,/4D/4B,/4A,/4G,/4 z/4 G,/4A,/4_B,/4D/4B,/4A,/4G,/4 z/4 ^G,/4A,/4=B,/4D/4B,/4A,/4G,/4 | %14
 A,/^C/4B,/4C/F,/4E,/4 F,/B,/4A,/4B,/E,/4D,/4 E,/A,/4G,/4A,/D,/4^C,/4 | %15
 D,/4E,/4F,/4G,/4A,/4G,/4F,/4E,/4 D,/F,/A,,/D,/ D,, z | B,/G,/D,/G,/ B,/G,/D/B,/ G,/B,/A,/G,/ | %17
 D/A,/F,/A,/ D/A,/[K:treble]A/F/ D/F/E/D/ | G/E/B,/E/ G/E/B/G/ E/B/A/G/ | %19
 d/A/F/A/ d/A/a/f/ d/f/e/d/ | g/d/B/d/ g/d/b/g/ d/=f/e/d/ | e/c/G/c/ e/c/g/e/ c/d/c/B/ | %22
 A/F/D/F/ A/F/d/A/ F/A/G/F/ | G/D/B,/D/ G/D/B/G/ d/c/B/A/ | G z/ g/4f/4 g/ z ^c/4B/4 c/ z F/4E/4 | %25
 F/ z f/4e/4 f/ z B/4A/4 B/ z E/4D/4 | E/ z e/4d/4 e/ z G/4F/4 G/ z ^C/4B,/4 | %27
[K:bass] ^C/ z E,/4D,/4 E,/ z A,,/4G,,/4 A,,/ z F,,/4E,,/4 | F,, z[K:treble] d z c z | %29
[K:bass] z/4 G,/4A,/4B,/4D/4B,/4A,/4G,/4 z/4 G,/4A,/4_B,/4D/4B,/4A,/4G,/4 z/4 ^G,/4A,/4=B,/4D/4B,/4A,/4G,/4 | %30
 A,/^C/4B,/4C/F,/4E,/4 F,/B,/4A,/4B,/E,/4D,/4 E,/A,/4G,/4A,/D,/4^C,/4 | %31
 D,/4E,/4F,/4G,/4A,/4G,/4F,/4E,/4 D,/F,/A,,/D,/ D,, z | %32
 D, z[K:treble] d'/4c'/4d'/4c'/4d'/4c'/4d'/4c'/4 d'/4c'/4d'/4c'/4d'/4c'/4b/4c'/4 | %33
 b z =F/4E/4F3/2- F/A/G/F/ | E z fa ^de/f/ | B z[K:bass] A,,3- A,,/G,,/4A,,/4 | %36
 G,,E,, G,,B,, G,,E,, | A,,A,,, A,,C, B,,A,, | B,,^D, F,B, B,,[K:treble]E/^D/ | EG Be/^d/ e z | %40
[K:bass] z/ C,/4B,,/4C,/ z A,/4^G,/4A,/ z E/4D/4E/ z/ | %41
 z/ B,,/4A,,/4B,,/ z G,/4F,/4G,/ z D/4C/4D/ z/ | z/ A,,/4G,,/4A,,/ z E,/4D,/4E,/ z C/4B,/4C/ z/ | %43
[K:treble] z/ A/4G/4A/ z f/4e/4f/ z a/4g/4a/ z/ | %44
 z/4 G/4A/4B/4d/4B/4A/4G/4 z/4 G/4A/4B/4d/4B/4A/4G/4 z/4 G/4A/4B/4d/4B/4A/4G/4 | %45
 c z[K:bass] A, z E, z | F,/A,/4G,/4A,/D/4C/4 D/G,/4F,/4G,/C/4B,/4 C/F,/4E,/4F,/B,/4A,/4 | %47
 B,/G,/F,/G,/ B,/4A,/4G,/D/4C/4B,/ G z | %48
 D, z d'/4c'/4d'/4c'/4d'/4c'/4d'/4c'/4 d'/4c'/4d'/4c'/4d'/4c'/4b/4c'/4 | %49
 b z =F/4E/4F3/2- F/A/G/F/ | E z fa ^de/f/ | B z A,,3- A,,/G,,/4A,,/4 | G,,E,, G,,B,, G,,E,, | %53
 A,,A,,, A,,C, B,,A,, | B,,^D, F,B, B,,E/^D/ | EG Be/^d/ e z | %56
 z/ C,/4B,,/4C,/ z A,/4^G,/4A,/ z E/4D/4E/ z/ | z/ B,,/4A,,/4B,,/ z G,/4F,/4G,/ z D/4C/4D/ z/ | %58
 z/ A,,/4G,,/4A,,/ z E,/4D,/4E,/ z C/4B,/4C/ z/ | z/ A/4G/4A/ z f/4e/4f/ z a/4g/4a/ z/ | %60
 z/4 G/4A/4B/4d/4B/4A/4G/4 z/4 G/4A/4B/4d/4B/4A/4G/4 z/4 G/4A/4B/4d/4B/4A/4G/4 | c z A, z E, z | %62
 F,/A,/4G,/4A,/D/4C/4 D/G,/4F,/4G,/C/4B,/4 C/F,/4E,/4F,/B,/4A,/4 | %63
 B,/G,/F,/G,/ B,/4A,/4G,/D/4C/4B,/ !fermata!G z |] %64

